X:1
T:Waldlied
T:Niels Wilhelm Gade
T:C. C. Tenner
T:Waldlied
T:Op. 11 No. 2
T:CPDL - Creative Commons Attribution Non Commercial 3.0
T:CPDL - Creative Commons Attribution Non Commercial 3.0
T:CPDL - Creative Commons Attribution Non Commercial 3.0
C:Niels Wilhelm Gade
Z:C. C. Tenner
Z:CPDL - Creative Commons Attribution Non Commercial 3.0
%%score [ 1 2 3 4 ]
L:1/8
Q:1/4=90
M:2/4
K:F
V:1 treble-8 nm="Tenor\n1"
V:2 treble-8 nm="Tenor\n2"
V:3 bass nm="Bass\n1"
V:4 bass nm="Bass\n2"
V:1
"^Allegro vivace"!mf! c | c>A A!<(!c!<)! |!>(! f2!>)! c!p!.a | .g.f .e!<(!.f!<)! |!>(! f>!>)!d dd | %5
w: 1.~Wo|Bü- sche stehn und|Bäu- me voll|tau- send schö- ner|Träu- * me, und|
w: 2.~Wo's|lus- tig hüpft und|sprin- get und|schwirrt und ruft und|sin- * get, und|
w: 3.~Wo's|bald so stil- le|lau- schet, bald|wun- der- selt- sam|rau- * schet, bald|
 c>d c!<(!e!<)! |!>(! g>!>)!a gf | ed c!<(! e/g/!<)! |!>(! g>!>)!f f z | z3/2!ff! A/ !>!A z/ ^c/ | %10
w: Laub und Gras und|Blu- men- duft rings-|um er- füllt die _|fri- sche Luft;|1\-3.~im Wald, im|
w: nah und fern das|Jagd- horn schallt, und|nah und fern die *|Büch- se knallt;||
w: süß und sü- ßer|spielt und kost, bald|wild und wil- der *|braust und tost;||
 !>!^c z/ e/ !>!e z/ a/ | !>!a4- | a3 A | !>!a4- | a3 A |"^dim." !>!e4- | %16
w: Wald, im Wald, im|Wald,|_ im|Wald,|_ im|Wald,|
w: ||||||
w: ||||||
!p! e[Q:1/4=80]"^ritenuto"g =fd |!p! d>c (3ced |[Q:1/4=90]"^Tempo I" c z z3/2!ff! c/ | %19
w: _ da ist mein|liebs- ter Auf- * ent-|halt; im|
w: |||
w: |||
 !>!c z/ f/ !>!f z/ a/ | !>!a2- a/f/c/f/ | !>!a2 !>!g2 | !>!f2 z |] %23
w: Wald, im Wald, im|Wald, _ _ _ mein|Auf- ent-|halt.|
w: ||||
w: ||||
V:2
!mf! A | A>A A!<(!B!<)! |!>(! A2!>)! F!p!.c | .c.c .B!<(!.c!<)! |!>(! ^c>!>)!d dB | %5
w: |||||
 B>B B!<(!G!<)! |!>(! e>!>)!e ed | c B/G/ E!<(! G/c/!<)! |!>(! c>!>)!c c z/!ff! A/ | A4- | %10
w: |||* * * 1\-3.~im|Wald,|
 A3 z/!ff! A/ | AA !>!^f>e | d>e ^cA | Ad !>!^f>e | d>e ^c z | z2!p! A2 |!<(! B3!<)!!>(! B!>)! | %17
w: _ im|Wald, da ist mein|Auf- ent- halt, da|ist mein liebs- ter|Auf- ent- halt,|mein|liebs- ter|
!p! B3 B | B z z3/2!ff! A/ | !>!A z/ c/ !>!c z/ f/ | !>!f2- f/c/A/c/ | !>!f2 !>!c2 | !>!c2 z |] %23
w: Auf- ent-|halt; im|Wald, im Wald, im|Wald, _ _ _ mein|Auf- ent-|halt.|
V:3
!mf! F, | F,>F, F,!<(!E,!<)! |!>(! C,>F,!>)! A,!p!.C | .B,.A, .G,!<(!.F,!<)! |!>(! F,>!>)!B, F,F, | %5
w: 1.~Wo|Bü- sche stehn und|Bäu- * me voll|tau- send schö- ner|Träu- * me, und|
w: 2.~Wo's|lus- tig hüpft und|sprin- * get und|schwirrt und ruft und|sin- * get, und|
w: 3.~Wo's|bald so stil- le|lau- * schet, bald|wun- der- selt- sam|rau- * schet, bald|
 E,>F, E,!<(!G,!<)! |!>(! B,>!>)!C B, G,/A,/ | B, E,/G,/ B,!<(!B,!<)! | %8
w: Laub und Gras und|Blu- men- duft rings- *|um er- * füllt die|
w: nah und fern das|Jagd- horn schallt, und *|nah und * fern die|
w: süß und sü- ßer|spielt und kost, bald *|wild und * wil- der|
!>(! B,>!>)!A, A, z/!ff! A,/ | A, z/ G,/ G,2- | G,3 z/!ff! A,/ | A,,A,, !>!A,>G, | ^F,>G, E,A,, | %13
w: fri- sche Luft; 1\-3.~im|Wald, im Wald,|_ im|Wald, da ist mein|Auf- ent- halt, da|
w: Büch- se knallt; *|||||
w: braust und tost; *|||||
 A,^F, !>!A,>G, | ^F,>G, E, z | z2!p! E,2 |!<(! (E,2!<)!!>(! =F,)!>)!F, |!p! G,>G, (3E,G,F, | %18
w: ist mein liebs- ter|Auf- ent- halt,|mein|liebs- * ter,|lieb- ster Auf- * ent-|
w: |||||
w: |||||
 E, z z3/2!ff! F,/ | !>!F, z/ A,/ !>!A, z/ C/ | !>!C2- C/A,/F,/A,/ | !>!C2 !>!B,2 | !>!A,2 z |] %23
w: halt; im|Wald, im Wald, im|Wald, _ _ _ mein|Auf- ent-|halt.|
w: |||||
w: |||||
V:4
!mf! F, | F,>F, F,!<(!C,!<)! |!>(! F,,2!>)! F,,!p!.F,, | .F,,.F,, .G,,!<(!.A,,!<)! | %4
w: ||||
!>(! A,,>!>)!B,, B,,G,, | C,>C, C,!<(!C,!<)! |!>(! C,>!>)!C, C,C, | C,C, C,!<(!C,!<)! | %8
w: ||||
!>(! F,>!>)!F, F, z | z3/2!ff! G,/ !>!G, z/ E,/ | !>!E, z/ ^C,/ !>!C, z/ A,,/ | !>!A,,4- | %12
w: |1\-3.~im Wald, im|Wald, im Wald, im|Wald,|
 A,,A,, !>!A,2 | z3/2 A,,/ !>!A,,2- | A,,3 z | z2!p! ^C,2 |!<(! (^C,2!<)!!>(! D,)!>)!D, | %17
w: _ im Wald,|im Wald,|_|mein|liebs- * ter|
!p! E,>E, G,2- | G, z/!ff! C/ !>!C2- | C4- | C>C, !>!C,2- | C, z/ C,/ !>!E, z/ C,/ | !>!F,2 z |] %23
w: Auf- ent- halt,|_ im Wald,|_|* im Wald,|_ im Wald, im|Wald.|

